source/img/icons/icon-envelope.svg

<svg width="19" height="13" viewBox="0 0 19 13" fill="none" xmlns="http://www.w3.org/2000/svg">
<path fill-rule="evenodd" clip-rule="evenodd" d="M16.1393 10.4663L11.8089 6.5L16.1393 2.53365L15.5488 1.90264L9.24997 7.67188L2.95117 1.90264L2.36066 2.53365L6.69108 6.5L2.36066 10.4663L2.95117 11.0974L7.33081 7.08594L9.24997 8.84375L11.1691 7.08594L15.5488 11.0974L16.1393 10.4663ZM1.57593 0.25C0.76692 0.25 0.111084 0.948839 0.111084 1.80786V11.1921C0.111084 12.0525 0.7616 12.75 1.57593 12.75H16.924C17.733 12.75 18.3889 12.0512 18.3889 11.1921V1.80786C18.3889 0.947478 17.7383 0.25 16.924 0.25H1.57593Z" fill="#FFD74B"/>
</svg>

<svg width="19" height="13" fill="none" xmlns="http://www.w3.org/2000/svg"><path fill-rule="evenodd" clip-rule="evenodd" d="M16.14 10.47L11.8 6.5l4.33-3.97-.6-.63-6.29 5.77-6.3-5.77-.59.63L6.7 6.5l-4.33 3.97.6.63 4.37-4.01 1.92 1.75 1.92-1.75 4.38 4 .59-.62zM1.58.25C.77.25.1.95.1 1.81v9.38c0 .86.65 1.56 1.47 1.56h15.34c.81 0 1.47-.7 1.47-1.56V1.81c0-.86-.65-1.56-1.47-1.56H1.58z" fill="#FFD74B"/></svg>
